storage/app/icons/phosphoricons/thin/first-aid-thin.svg

<svg xmlns="http://www.w3.org/2000/svg" fill="currentColor" viewBox="0 0 256 256"><path d="M216 92h-52V40a12 12 0 0 0-12-12h-48a12 12 0 0 0-12 12v52H40a12 12 0 0 0-12 12v48a12 12 0 0 0 12 12h52v52a12 12 0 0 0 12 12h48a12 12 0 0 0 12-12v-52h52a12 12 0 0 0 12-12v-48a12 12 0 0 0-12-12m4 60a4 4 0 0 1-4 4h-56a4 4 0 0 0-4 4v56a4 4 0 0 1-4 4h-48a4 4 0 0 1-4-4v-56a4 4 0 0 0-4-4H40a4 4 0 0 1-4-4v-48a4 4 0 0 1 4-4h56a4 4 0 0 0 4-4V40a4 4 0 0 1 4-4h48a4 4 0 0 1 4 4v56a4 4 0 0 0 4 4h56a4 4 0 0 1 4 4Z"/></svg>

<svg xmlns="http://www.w3.org/2000/svg" viewBox="0 0 256 256" fill="currentColor"><path d="M216,92H164V40a12,12,0,0,0-12-12H104A12,12,0,0,0,92,40V92H40a12,12,0,0,0-12,12v48a12,12,0,0,0,12,12H92v52a12,12,0,0,0,12,12h48a12,12,0,0,0,12-12V164h52a12,12,0,0,0,12-12V104A12,12,0,0,0,216,92Zm4,60a4,4,0,0,1-4,4H160a4,4,0,0,0-4,4v56a4,4,0,0,1-4,4H104a4,4,0,0,1-4-4V160a4,4,0,0,0-4-4H40a4,4,0,0,1-4-4V104a4,4,0,0,1,4-4H96a4,4,0,0,0,4-4V40a4,4,0,0,1,4-4h48a4,4,0,0,1,4,4V96a4,4,0,0,0,4,4h56a4,4,0,0,1,4,4Z"/></svg>
